YaketySax:
d=16, o=6, b=120:
8p, 8d#,
8g#, 8g#, f, d#, b5, c, d#, c, 8f, d#, c, a#5, c,
8g#5, g#5, a#5, c, d#, f, d#, 8g#, 8p., d#, f, d#,
8g#, 8g#, f, d#, b5, c, d#, c, 8f, d#, c, a#5, c,
8d#, d#, d#, g, a#, 8g, 8d#, 8p., d#, f, d#,
8g#, 8g#, 8g#, 8g#, 8g#, 8g#, f, d#, c, a#5,
8c#, 8c#, 8c#, 8c#, f, g#, a#, g#, b, 8g#, p,
c7, b, c7, b, c7, 8d#7., c7, d#7, c7, 8g#, p, 8d#,
c7, 8g#, d#, 8a#, 8g#., 8p.
